icons/SVG/datenrettung_icon.svg

<?xml version="1.0" encoding="UTF-8"?>
<svg width="300px" height="260px" viewBox="0 0 300 260" version="1.1" xmlns="http://www.w3.org/2000/svg" xmlns:xlink="http://www.w3.org/1999/xlink">
    <!-- Generator: Sketch 42 (36781) - http://www.bohemiancoding.com/sketch -->
    <title>datenrettung_icon</title>
    <desc>Created with Sketch.</desc>
    <defs></defs>
    <g id="Page-1" stroke="none" stroke-width="1" fill="none" fill-rule="evenodd">
        <g id="datenrettung_icon" fill="#1A1918">
            <g id="Datenrettung_Icon">
                <path d="M186.017882,174.87714 C186.101725,180.814459 183.901507,183.077241 178.346594,183.026414 C169.332511,182.935185 160.316135,182.897065 151.302052,182.889571 C150.532074,183.008494 149.71821,183.047266 148.848996,182.914333 C148.812969,182.907165 148.777271,182.893481 148.7419,182.888268 C139.494301,182.889571 130.246376,182.934208 120.99845,183.028368 C115.459913,183.084734 113.055,180.688368 113.06548,174.917867 C113.073996,169.174083 113.067118,163.431602 113.071048,157.687817 C113.071048,157.657842 113.06548,157.63308 113.06548,157.602454 C113.104782,136.730774 113.099214,115.858444 113.093974,94.9883935 C113.093974,91.3672907 113.097904,87.7448847 113.097904,84.1244336 C113.095939,78.7471905 115.415371,76.2035564 120.610022,76.2322281 C139.953799,76.3316015 159.297249,76.3228045 178.641026,76.2289699 C183.799978,76.2035564 186.051943,78.5096717 185.996921,84.0853358 C185.989389,84.8294962 185.994956,85.5720276 185.989389,86.3168396 C185.989389,86.3624536 185.996921,86.3995965 185.996921,86.447817 C185.96286,89.258619 185.971703,92.0694211 185.959258,94.8821779 C185.946485,98.6427293 185.918319,102.40491 185.919956,106.167742 C185.929127,111.544985 185.946485,116.918318 185.946485,122.293607 C185.946485,123.169396 185.94321,124.046163 185.941572,124.920323 C185.94321,126.56308 185.94845,128.202253 185.94845,129.843381 C185.94845,135.649722 185.930437,141.455737 185.916354,147.263055 C185.930437,150.700073 185.957293,154.136439 186.017882,157.57085 C186.028362,158.201952 185.989389,158.770173 185.915044,159.297341 C185.923559,164.491802 185.946485,169.684308 186.017882,174.87714 M194.317991,82.4689699 C194.243319,73.7866642 189.5419,69.8716767 179.260677,69.8273659 C159.655218,69.7371153 140.046485,69.7315764 120.440699,69.8325789 C110.275415,69.8840576 105.745284,73.5455614 105.71155,81.9991454 C105.588734,113.921476 105.568755,145.844133 105.689934,177.764183 C105.722358,186.485586 110.334367,190.129496 120.907402,190.18293 C139.60107,190.278393 158.29441,190.235712 176.987751,190.209647 C190.006965,190.191727 194.321594,186.664459 194.357293,175.951351 C194.408712,160.752429 194.371376,145.551226 194.36417,130.352629 C194.357293,114.391301 194.455218,98.4283434 194.317991,82.4689699" id="Fill-1"></path>
                <path d="M149.999672,97.2852231 C136.752511,97.2852231 125.975764,108.005499 125.975764,121.184371 C125.975764,134.362917 136.752511,145.083519 149.999672,145.083519 C163.246507,145.083519 174.023253,134.362917 174.023253,121.184371 C174.023253,108.005499 163.246507,97.2852231 149.999672,97.2852231 M149.999672,152.342992 C132.730022,152.342992 118.678821,138.364897 118.678821,121.184371 C118.678821,104.003845 132.730022,90.0260752 149.999672,90.0260752 C167.269323,90.0260752 181.320197,104.003845 181.320197,121.184371 C181.320197,138.364897 167.269323,152.342992 149.999672,152.342992" id="Fill-3"></path>
                <path d="M135.886638,151.364409 C135.006288,152.240198 133.388712,152.051551 132.273865,150.942479 C131.16,149.835361 130.971354,148.225837 131.851703,147.350373 L144.138275,135.127115 C145.02059,134.249697 146.637838,134.437366 147.751376,135.545135 C148.86655,136.654534 149.055524,138.263732 148.173537,139.14115 L135.886638,151.364409 Z" id="Fill-5"></path>
                <path d="M144.16143,121.304825 C144.16143,124.440138 146.716343,126.981491 149.86798,126.981491 C153.019618,126.981491 155.573876,124.440138 155.573876,121.304825 C155.573876,118.169511 153.019618,115.628158 149.86798,115.628158 C146.716343,115.628158 144.16143,118.169511 144.16143,121.304825" id="Fill-7"></path>
                <path d="M118.303068,177.032469 C118.303068,179.242469 120.106015,181.035752 122.327522,181.035752 C124.549028,181.035752 126.351648,179.242469 126.351648,177.032469 C126.351648,174.822469 124.549028,173.028534 122.327522,173.028534 C120.106015,173.028534 118.303068,174.822469 118.303068,177.032469" id="Fill-9"></path>
                <path d="M173.647303,177.032469 C173.647303,179.242469 175.450251,181.035752 177.671758,181.035752 C179.892937,181.035752 181.695884,179.242469 181.695884,177.032469 C181.695884,174.822469 179.892937,173.028534 177.671758,173.028534 C175.450251,173.028534 173.647303,174.822469 173.647303,177.032469" id="Fill-11"></path>
                <path d="M118.17131,84.7321429 C118.17131,86.9421429 119.974258,88.7357519 122.195764,88.7357519 C124.417271,88.7357519 126.219891,86.9421429 126.219891,84.7321429 C126.219891,82.5221429 124.417271,80.7285338 122.195764,80.7285338 C119.974258,80.7285338 118.17131,82.5221429 118.17131,84.7321429" id="Fill-13"></path>
                <path d="M173.515218,84.7321429 C173.515218,86.9421429 175.318493,88.7357519 177.539672,88.7357519 C179.761507,88.7357519 181.564454,86.9421429 181.564454,84.7321429 C181.564454,82.5221429 179.761507,80.7285338 177.539672,80.7285338 C175.318493,80.7285338 173.515218,82.5221429 173.515218,84.7321429" id="Fill-15"></path>
                <path d="M80.3781878,249.963707 L219.622074,249.963707 L289.24369,130.000424 L219.622074,10.0364887 L80.3781878,10.0364887 L10.7562445,130.000424 L80.3781878,249.963707 Z M222.458319,259.738143 L77.5419432,259.738143 C75.7868122,259.738143 74.1649782,258.806639 73.2875764,257.294534 L0.829388646,132.444033 C-0.0483406114,130.931927 -0.0483406114,129.06892 0.829388646,127.556815 L73.2875764,2.70566165 C74.1649782,1.19355639 75.7868122,0.262052632 77.5419432,0.262052632 L222.458319,0.262052632 C224.21345,0.262052632 225.834956,1.19355639 226.712686,2.70566165 L299.170546,127.556815 C300.048275,129.06892 300.048275,130.931927 299.170546,132.444033 L226.712686,257.294534 C225.834956,258.806639 224.21345,259.738143 222.458319,259.738143 L222.458319,259.738143 Z" id="Fill-17"></path>
            </g>
        </g>
    </g>
</svg>

<svg width="300" height="260" viewBox="0 0 300 260" xmlns="http://www.w3.org/2000/svg"><title>datenrettung_icon</title><g fill="#57B8BA" fill-rule="evenodd"><path d="M186.018 174.877c.084 5.937-2.116 8.2-7.671 8.15-9.014-.092-18.03-.13-27.045-.137a7.974 7.974 0 0 1-2.453.024c-.036-.007-.072-.02-.107-.026-9.248.002-18.496.046-27.744.14-5.538.057-7.943-2.34-7.933-8.11.009-5.744.002-11.486.006-17.23 0-.03-.006-.055-.006-.086.04-20.871.034-41.744.029-62.614 0-3.62.004-7.243.004-10.864-.002-5.377 2.317-7.92 7.512-7.892 19.344.1 38.687.09 58.031-.003 5.159-.025 7.41 2.28 7.356 7.856-.008.744-.002 1.487-.008 2.232 0 .045.008.083.008.13-.034 2.812-.025 5.622-.038 8.435-.013 3.76-.04 7.523-.039 11.286.01 5.377.026 10.75.026 16.126 0 .875-.003 1.752-.004 2.626.001 1.643.006 3.282.006 4.923 0 5.807-.018 11.613-.032 17.42.014 3.437.041 6.873.102 10.308.01.631-.029 1.2-.103 1.726.009 5.195.031 10.387.103 15.58m8.3-92.408c-.075-8.682-4.776-12.597-15.057-12.642-19.606-.09-39.215-.095-58.82.006-10.166.051-14.696 3.713-14.73 12.166a12528.94 12528.94 0 0 0-.021 95.765c.032 8.722 4.644 12.365 15.217 12.419 18.694.095 37.387.053 56.08.027 13.02-.018 17.335-3.546 17.37-14.259.052-15.199.014-30.4.007-45.598-.007-15.962.091-31.925-.046-47.884"/><path d="M150 97.285c-13.247 0-24.024 10.72-24.024 23.9 0 13.178 10.777 23.899 24.024 23.899 13.247 0 24.023-10.721 24.023-23.9 0-13.179-10.776-23.899-24.023-23.899m0 55.058c-17.27 0-31.321-13.978-31.321-31.159 0-17.18 14.051-31.158 31.32-31.158 17.27 0 31.321 13.978 31.321 31.158s-14.05 31.159-31.32 31.159"/><path d="M135.887 151.364c-.88.876-2.498.688-3.613-.422-1.114-1.107-1.303-2.716-.422-3.592l12.286-12.223c.883-.877 2.5-.69 3.613.418 1.116 1.11 1.305 2.719.423 3.596l-12.287 12.223zm8.274-30.059c0 3.135 2.555 5.676 5.707 5.676 3.152 0 5.706-2.54 5.706-5.676 0-3.135-2.554-5.677-5.706-5.677-3.152 0-5.707 2.542-5.707 5.677m-25.858 55.727c0 2.21 1.803 4.004 4.025 4.004 2.221 0 4.024-1.794 4.024-4.004 0-2.21-1.803-4.003-4.024-4.003-2.222 0-4.025 1.793-4.025 4.003m55.344 0c0 2.21 1.803 4.004 4.025 4.004 2.22 0 4.024-1.794 4.024-4.004 0-2.21-1.803-4.003-4.024-4.003-2.222 0-4.025 1.793-4.025 4.003m-55.476-92.3c0 2.21 1.803 4.004 4.025 4.004 2.221 0 4.024-1.794 4.024-4.004 0-2.21-1.803-4.003-4.024-4.003-2.222 0-4.025 1.793-4.025 4.003m55.344 0c0 2.21 1.803 4.004 4.025 4.004 2.222 0 4.024-1.794 4.024-4.004 0-2.21-1.802-4.003-4.024-4.003s-4.025 1.793-4.025 4.003"/><path d="M80.378 249.964h139.244L289.244 130 219.622 10.036H80.378L10.756 130l69.622 119.964zm142.08 9.774H77.542a4.917 4.917 0 0 1-4.254-2.443L.829 132.444a4.865 4.865 0 0 1 0-4.887L73.288 2.706A4.917 4.917 0 0 1 77.542.262h144.916a4.92 4.92 0 0 1 4.255 2.444l72.458 124.85a4.865 4.865 0 0 1 0 4.888l-72.458 124.85a4.917 4.917 0 0 1-4.255 2.444z"/></g></svg>
